202404-ahaslides-april/assets/images/3a.svg

<svg width="100" height="100" viewBox="0 0 100 100" fill="none" xmlns="http://www.w3.org/2000/svg">
<path fill-rule="evenodd" clip-rule="evenodd" d="M47.0002 37.8772C50.7921 37.8772 54.2828 39.1667 57.0576 41.3311C55.5424 43.1462 54.6301 45.4822 54.6301 48.031C54.6301 50.3573 55.3901 52.5062 56.6747 54.2438H37.3258C38.6105 52.5062 39.3705 50.3574 39.3705 48.031C39.3705 45.4822 38.4582 43.1462 36.9429 41.3311C39.7177 39.1667 43.2084 37.8772 47.0002 37.8772ZM28.9081 58.5163C36.2594 58.5163 42.4788 63.3631 44.5449 70.0354C44.908 71.2076 44.7106 72.3739 43.9824 73.3617C43.2542 74.3495 42.1985 74.8829 40.9713 74.8829H16.8447C15.6175 74.8829 14.5618 74.3495 13.8336 73.3617C13.1054 72.3739 12.9082 71.2076 13.2711 70.0354C15.3374 63.3632 21.5568 58.5163 28.9081 58.5163ZM65.0925 39.7562C60.5224 39.7562 56.8176 43.4611 56.8176 48.0312C56.8176 52.6012 60.5224 56.3061 65.0925 56.3061C69.6626 56.3061 73.3674 52.6012 73.3674 48.0312C73.3674 43.4611 69.6626 39.7562 65.0925 39.7562ZM28.9081 39.7562C24.338 39.7562 20.6332 43.4611 20.6332 48.0312C20.6332 52.6012 24.338 56.3061 28.9081 56.3061C33.4782 56.3061 37.183 52.6012 37.183 48.0312C37.183 43.4611 33.4782 39.7562 28.9081 39.7562ZM65.0923 58.5163C72.4437 58.5163 78.663 63.3631 80.7291 70.0354C81.0923 71.2076 80.8948 72.3739 80.1667 73.3617C79.4385 74.3495 78.3828 74.8829 77.1556 74.8829H53.0291C51.8019 74.8829 50.7462 74.3495 50.018 73.3617C49.2898 72.3739 49.0925 71.2076 49.4555 70.0354C51.5218 63.3632 57.7412 58.5163 65.0923 58.5163ZM47.0003 19.1172C51.5704 19.1172 55.2752 22.822 55.2752 27.3921C55.2752 31.9622 51.5704 35.667 47.0003 35.667C42.4302 35.667 38.7254 31.9622 38.7254 27.3921C38.7254 22.822 42.4302 19.1172 47.0003 19.1172Z" fill="#2F68DC"/>
</svg>

<svg xmlns="http://www.w3.org/2000/svg" width="100" height="100" fill="none" viewBox="0 0 100 100">
  <path fill="#2F68DC" fill-rule="evenodd" d="M47 37.877a16.3 16.3 0 0 1 10.058 3.454 10.42 10.42 0 0 0-2.428 6.7c0 2.326.76 4.475 2.045 6.213h-19.35a10.414 10.414 0 0 0 2.045-6.213 10.42 10.42 0 0 0-2.427-6.7A16.296 16.296 0 0 1 47 37.877Zm-18.092 20.64c7.351 0 13.57 4.846 15.637 11.518.363 1.173.166 2.339-.563 3.327-.728.988-1.783 1.52-3.01 1.52H16.844c-1.227 0-2.283-.532-3.011-1.52-.729-.988-.926-2.154-.563-3.327 2.066-6.672 8.286-11.519 15.637-11.519Zm36.184-18.76a8.275 8.275 0 1 0 0 16.55 8.275 8.275 0 0 0 0-16.55Zm-36.184 0a8.275 8.275 0 1 0 0 16.55 8.275 8.275 0 0 0 0-16.55Zm36.184 18.76c7.352 0 13.571 4.846 15.637 11.518.363 1.173.166 2.339-.562 3.327-.728.988-1.784 1.52-3.011 1.52H53.029c-1.227 0-2.283-.532-3.011-1.52-.728-.988-.925-2.154-.563-3.327 2.067-6.672 8.286-11.519 15.637-11.519ZM47 19.116a8.275 8.275 0 1 1 0 16.55 8.275 8.275 0 0 1 0-16.55Z" clip-rule="evenodd"/>
</svg>
